!!!OTL: 1599. Abschied von Berlin.
!!!ARE: Europa, Mitteleuropa, Deutschland, Brandenburg
!!!SCT: E1599
!!!TXL: @@DE
!!!YEM: Copyright 1995, estate of Helmut Schaffrath.
**kern	**text
*ICvox	*
*M3/4	*
*k[b-]	*
*F:	*
!LO:TX:a:t=Sehr mäßig.	!
!LO:TX:a:t=Mel. mündlich aus dem Brandenburgiſchen.	!
{8f	1._O
8a	Ber-
=1	=1
4.cc	-lin,
8ff	ich
8cc	muß
8b-	dich
=2	=2
8b-L	laſ-
8aJ	.
4a}	-ſen,
{8g	o
8a	du
=3	=3
4.b-	wun-
8g	-der-
8a	-ſchö-
8cc	-ne
=4	=4
4.g	Stadt!
8r}	.
{8f	und
8a	da-
=5	=5
4.cc	-rin-
8a	-nen
8b-	muß
8dd	ich
=6	=6
8ddL	laſ-
8ccJ	.
4cc}	-ſen
{8ff	mei-
8dd	-nen
=7	=7
4.cc	aus-
8a	-er-
8b-	-wähl-
8cc	-ten
=8	=8
4.a	Schatʒ.
8r}	.
==	==
!!!AGN: Staende -, Handwerker -, Gesellen - Lied; Abschied, Wanderschaft
!!!ONB: ESAC (Essen Associative Code) Database: ERK3
!!!AMT: simple triple
!!!AIN: vox
!!!EED: Helmut Schaffrath
!!!EEV: 1.0
!!!GTL: Staendelieder (Berufslieder). 8. Handwerkerlieder.
!!!URL-scan: https://rosdok.uni-rostock.de/mcrviewer/recordIdentifier/rosdok_ppn745177999/iview2/phys_0425.iview2?x=-449.8344612962892&y=1642.7439153748564&scale=0.47549036216460333&rotation=0&layout=singlePageLayout
!!!ENC: Anna Maria Matuszewska
!!!EEV: 2025/08/01
*-	*-
